app/dist/common/images/on-semiconductor.svg

<svg height="18" width="18" xmlns="http://www.w3.org/2000/svg"><path d="m0 0h18v18h-18z" fill="#3db049"/><g fill="#fffffe"><path d="m7.205 7.897c0-.188.15-.337.337-.337.188 0 .338.15.338.337v2.22c0 .188-.15.314-.338.314s-.337-.126-.337-.314z"/><path d="m4 9a5 5 0 1 1 10 0 5 5 0 0 1 -10 0zm3.567 2.178c.594 0 1.133-.46 1.133-.938v-2.44c0-.478-.535-.937-1.133-.937-.594 0-1.154.46-1.154.937v2.44c0 .479.556.938 1.154.938zm3.433-.178h.671v-4h-.671v2.245l-1-2.245h-.688v4h.688v-2z"/></g></svg>

<!-- by TradingView --><svg width="18" height="18" xmlns="http://www.w3.org/2000/svg"><path fill="#3DB049" d="M0 0h18v18H0z"/><path d="M7.205 7.897c0-.188.15-.337.337-.337.188 0 .338.15.338.337v2.22c0 .188-.15.314-.338.314-.188 0-.337-.126-.337-.314v-2.22z" fill="#FFFFFE"/><path d="M4 9a5 5 0 1110 0A5 5 0 014 9zm3.567 2.178c.594 0 1.133-.46 1.133-.938V7.8c0-.478-.535-.937-1.133-.937-.594 0-1.154.46-1.154.937v2.44c0 .479.556.938 1.154.938zM11 11h.671V7H11v2.245L10 7h-.688v4H10V9l1 2z" fill="#FFFFFE"/></svg>
